ix/sticker_linear.svg

<svg viewBox="0 0 24 24" fill="none" xmlns="http://www.w3.org/2000/svg" height="1em" width="1em">
  <path d="M21.93 12.86c-.02.19-.05.37-.1.55A5.96 5.96 0 0 0 17.97 12c-3.31 0-6 2.69-6 6 0 1.47.53 2.82 1.41 3.86-.18.05-.36.08-.55.1-.85.08-1.72.04-2.62-.11-4.11-.7-7.42-4.03-8.1-8.15A10.01 10.01 0 0 1 13.67 2.14c4.12.68 7.45 3.99 8.15 8.1.15.9.19 1.77.11 2.62Z" stroke="#292D32" stroke-width="1.5" stroke-linecap="round" stroke-linejoin="round"/>
  <path d="M21.83 13.41c-.14.49-.4.93-.77 1.3l-6.38 6.38c-.37.37-.81.63-1.3.77A5.96 5.96 0 0 1 11.97 18c0-3.31 2.69-6 6-6 1.47 0 2.82.53 3.86 1.41Z" stroke="#292D32" stroke-width="1.5" stroke-linecap="round" stroke-linejoin="round"/>
</svg>

<svg viewBox="0 0 24 24" fill="none" xmlns="http://www.w3.org/2000/svg" height="1em" width="1em">
  <path d="M21.93 12.86C21.91 13.05 21.88 13.23 21.83 13.41C20.79 12.53 19.44 12 17.97 12C14.66 12 11.97 14.69 11.97 18C11.97 19.47 12.5 20.82 13.38 21.86C13.2 21.91 13.02 21.94 12.83 21.96C11.98 22.04 11.11 22 10.21 21.85C6.09999 21.15 2.78999 17.82 2.10999 13.7C0.97999 6.85002 6.81999 1.01002 13.67 2.14002C17.79 2.82002 21.12 6.13002 21.82 10.24C21.97 11.14 22.01 12.01 21.93 12.86Z" stroke="#292D32" stroke-width="1.5" stroke-linecap="round" stroke-linejoin="round"/>
  <path d="M21.83 13.41C21.69 13.9 21.43 14.34 21.06 14.71L14.68 21.09C14.31 21.46 13.87 21.72 13.38 21.86C12.5 20.82 11.97 19.47 11.97 18C11.97 14.69 14.66 12 17.97 12C19.44 12 20.79 12.53 21.83 13.41Z" stroke="#292D32" stroke-width="1.5" stroke-linecap="round" stroke-linejoin="round"/>
</svg>
